static/img/olake/olake-product-1.svg

<svg xmlns="http://www.w3.org/2000/svg" width="72" height="72" viewBox="0 0 72 72" fill="none">
<g clip-path="url(#clip0_1_1023)">
<rect width="72" height="72" rx="36" fill="#333333"/>
<line x1="-4" y1="20.5" x2="75" y2="20.5" stroke="#7C91F8" stroke-width="3"/>
<path d="M18.7067 23.1556L19.7087 21.4855C19.8894 21.1843 20.2149 21 20.5662 21H53.2792C53.7097 21 54.0918 21.2754 54.2279 21.6838L54.8198 23.4594C54.9315 23.7945 54.8581 24.1637 54.6268 24.4306L48.7443 31.2181C48.5867 31.3999 48.5 31.6324 48.5 31.873V39.5546C48.5 39.8381 48.3797 40.1083 48.169 40.2979L43.6014 44.4087C43.5341 44.4693 43.4754 44.5387 43.4267 44.6151L37.2087 54.3863C36.8529 54.9454 36.0617 55.0101 35.6198 54.5162L28.2548 46.2847C28.0907 46.1014 28 45.864 28 45.6179V40.486C28 40.1792 27.8581 39.8909 27.6226 39.6942C22.4482 35.3751 19.5222 27.6444 18.5926 23.8897C18.5307 23.6395 18.574 23.3766 18.7067 23.1556Z" stroke="#7C91F8" stroke-width="3"/>
<path d="M20.9882 18.1129L20.5723 19.1175C20.2998 19.7759 20.7837 20.5 21.4963 20.5H51.882C52.6253 20.5 53.1088 19.7177 52.7764 19.0528L52.1271 17.7541C52.044 17.588 51.9163 17.4483 51.7583 17.3506L47.3764 14.6429C47.225 14.5493 47.0513 14.4979 46.8734 14.4939L25.4269 14.0096C25.1542 14.0035 24.8908 14.109 24.6978 14.3017L21.2057 17.7876C21.1125 17.8807 21.0386 17.9912 20.9882 18.1129Z" stroke="#7C91F8" stroke-width="3"/>
</g>
<defs>
<clipPath id="clip0_1_1023">
<rect width="72" height="72" rx="36" fill="white"/>
</clipPath>
</defs>
</svg>

<svg xmlns="http://www.w3.org/2000/svg" width="72" height="72" fill="none" viewBox="0 0 72 72"><g clip-path="url(#a)"><rect width="72" height="72" fill="#333" rx="36"/><path stroke="#7c91f8" stroke-width="3" d="M-4 20.5h79M18.707 23.156l1.002-1.67a1 1 0 0 1 .857-.486H53.28a1 1 0 0 1 .949.684l.592 1.775a1 1 0 0 1-.193.972l-5.883 6.787a1 1 0 0 0-.244.655v7.682a1 1 0 0 1-.331.743l-4.568 4.11q-.101.092-.174.207l-6.218 9.771a1 1 0 0 1-1.59.13l-7.364-8.231a1 1 0 0 1-.255-.667v-5.132c0-.307-.142-.595-.377-.792-5.175-4.319-8.1-12.05-9.03-15.804a.97.97 0 0 1 .114-.734ZM20.988 18.113l-.416 1.005a1 1 0 0 0 .924 1.382h30.386a1 1 0 0 0 .894-1.447l-.649-1.299a1 1 0 0 0-.369-.403l-4.382-2.708a1 1 0 0 0-.503-.15l-21.446-.483a1 1 0 0 0-.73.292l-3.491 3.486a1 1 0 0 0-.218.325Z"/></g><defs><clipPath id="a"><rect width="72" height="72" fill="#fff" rx="36"/></clipPath></defs></svg>
